Newaita/actions/32/zoom-original.svg

<svg height="32" viewBox="0 0 32 32" width="32" xmlns="http://www.w3.org/2000/svg"><g fill="#424242"><path d="m15.875 11.496094c-2.5625 0-4.628906 2.066406-4.628906 4.628906 0 2.566406 2.066406 4.632812 4.628906 4.632812 2.566406 0 4.632812-2.066406 4.632812-4.632812 0-2.5625-2.066406-4.628906-4.632812-4.628906zm0 2.644531c1.101562 0 1.984375.886719 1.984375 1.984375 0 1.101562-.882813 1.984375-1.984375 1.984375-1.097656 0-1.984375-.882813-1.984375-1.984375 0-1.097656.886719-1.984375 1.984375-1.984375zm0 0"/><path d="m5.292969 2.894531c-1.464844 0-2.648438 1.183594-2.648438 2.648438v5.292969h2.648438v-3.96875c0-.734376.589843-1.324219 1.320312-1.324219h3.972657v-2.648438zm15.875 0v2.648438h3.96875c.734375 0 1.324219.589843 1.324219 1.324219v3.96875h2.644531v-5.292969c0-1.464844-1.179688-2.648438-2.644531-2.648438zm-18.523438 18.523438v5.292969c0 1.464843 1.183594 2.644531 2.648438 2.644531h5.292969v-2.644531h-3.972657c-.730469 0-1.320312-.589844-1.320312-1.324219v-3.96875zm23.816407 0v3.96875c0 .734375-.589844 1.324219-1.324219 1.324219h-3.96875v2.644531h5.292969c1.464843 0 2.644531-1.179688 2.644531-2.644531v-5.292969zm0 0"/></g></svg>

<?xml version="1.0" encoding="UTF-8"?>
<svg xmlns="http://www.w3.org/2000/svg" xmlns:xlink="http://www.w3.org/1999/xlink" width="32px" height="32px" viewBox="0 0 32 32" version="1.1">
<g id="surface1">
<path style=" stroke:none;fill-rule:nonzero;fill:rgb(25.882354%,25.882354%,25.882354%);fill-opacity:1;" d="M 15.875 11.496094 C 13.3125 11.496094 11.246094 13.5625 11.246094 16.125 C 11.246094 18.691406 13.3125 20.757812 15.875 20.757812 C 18.441406 20.757812 20.507812 18.691406 20.507812 16.125 C 20.507812 13.5625 18.441406 11.496094 15.875 11.496094 Z M 15.875 14.140625 C 16.976562 14.140625 17.859375 15.027344 17.859375 16.125 C 17.859375 17.226562 16.976562 18.109375 15.875 18.109375 C 14.777344 18.109375 13.890625 17.226562 13.890625 16.125 C 13.890625 15.027344 14.777344 14.140625 15.875 14.140625 Z M 15.875 14.140625 "/>
<path style=" stroke:none;fill-rule:nonzero;fill:rgb(25.882354%,25.882354%,25.882354%);fill-opacity:1;" d="M 5.292969 2.894531 C 3.828125 2.894531 2.644531 4.078125 2.644531 5.542969 L 2.644531 10.835938 L 5.292969 10.835938 L 5.292969 6.867188 C 5.292969 6.132812 5.882812 5.542969 6.613281 5.542969 L 10.585938 5.542969 L 10.585938 2.894531 Z M 21.167969 2.894531 L 21.167969 5.542969 L 25.136719 5.542969 C 25.871094 5.542969 26.460938 6.132812 26.460938 6.867188 L 26.460938 10.835938 L 29.105469 10.835938 L 29.105469 5.542969 C 29.105469 4.078125 27.925781 2.894531 26.460938 2.894531 Z M 2.644531 21.417969 L 2.644531 26.710938 C 2.644531 28.175781 3.828125 29.355469 5.292969 29.355469 L 10.585938 29.355469 L 10.585938 26.710938 L 6.613281 26.710938 C 5.882812 26.710938 5.292969 26.121094 5.292969 25.386719 L 5.292969 21.417969 Z M 26.460938 21.417969 L 26.460938 25.386719 C 26.460938 26.121094 25.871094 26.710938 25.136719 26.710938 L 21.167969 26.710938 L 21.167969 29.355469 L 26.460938 29.355469 C 27.925781 29.355469 29.105469 28.175781 29.105469 26.710938 L 29.105469 21.417969 Z M 26.460938 21.417969 "/>
</g>
</svg>
